; generated by PrusaSlicer 2.6.1+win64 on 2023-10-21 at 13:38:45 UTC


;
;

;
;
; 

; external perimeters extrusion width = 0.45mm
; perimeters extrusion width = 0.45mm
; infill extrusion width = 0.45mm
; solid infill extrusion width = 0.45mm
; top infill extrusion width = 0.40mm
; first layer extrusion width = 0.42mm

; external perimeters extrusion width = 0.45mm
; perimeters extrusion width = 0.45mm
; infill extrusion width = 0.45mm
; solid infill extrusion width = 0.45mm
; top infill extrusion width = 0.40mm
; first layer extrusion width = 0.42mm

; external perimeters extrusion width = 0.45mm
; perimeters extrusion width = 0.45mm
; infill extrusion width = 0.45mm
; solid infill extrusion width = 0.45mm
; top infill extrusion width = 0.40mm
; first layer extrusion width = 0.42mm

; external perimeters extrusion width = 0.45mm
; perimeters extrusion width = 0.45mm
; infill extrusion width = 0.45mm
; solid infill extrusion width = 0.45mm
; top infill extrusion width = 0.40mm
; first layer extrusion width = 0.42mm

; external perimeters extrusion width = 0.45mm
; perimeters extrusion width = 0.45mm
; infill extrusion width = 0.45mm
; solid infill extrusion width = 0.45mm
; top infill extrusion width = 0.40mm
; first layer extrusion width = 0.42mm

; external perimeters extrusion width = 0.45mm
; perimeters extrusion width = 0.45mm
; infill extrusion width = 0.45mm
; solid infill extrusion width = 0.45mm
; top infill extrusion width = 0.40mm
; first layer extrusion width = 0.42mm

M73 P0 R133
M73 Q0 S137
M201 X1000 Y1000 Z200 E5000 ; sets maximum accelerations, mm/sec^2
M203 X200 Y200 Z12 E120 ; sets maximum feedrates, mm / sec
M204 S1250 T1250 ; sets acceleration (S) and retract acceleration (R), mm/sec^2
M205 X8.00 Y8.00 Z0.40 E4.50 ; sets the jerk limits, mm/sec
M205 S0 T0 ; sets the minimum extruding and travel feed rate, mm/sec
;TYPE:Custom
M862.3 P "MK3" ; printer model check
M862.1 P0.4 ; nozzle diameter check
M115 U3.10.1 ; tell printer latest fw version
G90 ; use absolute coordinates
M83 ; extruder relative mode
M104 S233 ; set extruder temp
M140 S68 ; set bed temp
M190 S68 ; wait for bed temp
M109 S233 ; wait for extruder temp
G28 W ; home all without mesh bed level
G80 ; mesh bed leveling
G1 Z0.2 F720
G1 Y-3 F1000 ; go outside print area
G92 E0
G1 X60 E9 F1000 ; intro line
G1 X100 E12.5 F1000 ; intro line
G92 E0
M221 S95

; Don't change E values below. Excessive value can damage the printer.

M907 E538 ; set extruder motor current
G21 ; set units to millimeters
G90 ; use absolute coordinates
M83 ; use relative distances for extrusion
M900 K0.05 ; Filament gcode LA 1.5
M900 K30 ; Filament gcode LA 1.0
M107
;LAYER_CHANGE
;Z:0.2
;HEIGHT:0.2
;BEFORE_LAYER_CHANGE
G92 E0.0
;0.2


G1 E-.8 F2100
G1 Z.4 F720
;AFTER_LAYER_CHANGE
;0.2
G1 X37.437 Y22.015 F10800
G1 Z.2 F720
G1 E.8 F2100
M204 S800
;TYPE:Skirt/Brim
;WIDTH:0.42
G1 F1200
G1 X37.992 Y21.301 E.02835
G1 X38.936 Y20.643 E.03608
G1 X39.95 Y20.384 E.03281
G1 X78.439 Y20.367 E1.2068
G1 X223.68 Y28.704 E4.56143
G1 X224.963 Y29.17 E.0428
M73 Q0 S136
G1 X225.778 Y30.264 E.04277
G1 X225.921 Y31.066 E.02554
G1 X226.305 Y112.798 E2.56268
G1 X226.305 Y192.81 E2.50872
G1 X225.913 Y194.117 E.04278
G1 X224.868 Y194.993 E.04275
G1 X223.928 Y195.187 E.03009
G1 X186.117 Y195.166 E1.18554
G1 X59.954 Y178.512 E3.99007
G1 X58.608 Y178.185 E.04343
G1 X57.328 Y177.611 E.04398
G1 X56.175 Y176.811 E.044
G1 X55.188 Y175.813 E.04401
G1 X54.332 Y174.521 E.04859
G1 X53.949 Y173.667 E.02935
G1 X53.686 Y172.825 E.02766
G1 X37.071 Y104.383 E2.20828
G1 X37.074 Y23.121 E2.54791
G1 X37.418 Y22.072 E.03461
M204 S1000
; printing object Deckel.stl id:1 copy 0
;WIPE_START
G1 F8640
G1 X37.992 Y21.301 E-.22195
G1 X38.936 Y20.643 E-.2657
G1 X39.95 Y20.384 E-.24165
G1 X40.256 Y20.384 E-.0707
;WIPE_END
G1 Z.6 F720
G1 X40.601 Y23.922 F10800
G1 Z.2 F720
G1 E.8 F2100
M204 S800
;TYPE:Perimeter
;WIDTH:0.419999
G1 F1200
G1 X42.864 Y23.922 E.07095
G1 X42.875 Y40.99 E.53515
G1 X42.942 Y41.256 E.0086
G1 X43.101 Y41.442 E.00767
G1 X43.282 Y41.533 E.00635
G1 X43.441 Y41.555 E.00503
G1 X55.03 Y41.555 E.36336
G1 X55.1 Y41.551 E.0022
G1 X55.358 Y41.45 E.00869
G1 X55.536 Y41.242 E.00858
G1 X55.595 Y40.99 E.00811
G1 X55.604 Y23.918 E.53528
G1 X77.866 Y23.918 E.69801
M73 P0 R132
G1 X77.866 Y103.687 E2.5011
G1 X40.604 Y103.684 E1.16832
G1 X40.601 Y23.982 E2.499
M204 S1000
G1 X40.275 Y23.545 F10800
M204 S800
;TYPE:External perimeter
G1 F1200
G1 X43.18 Y23.545 E.09108
G1 X43.241 Y23.59 E.00238
G1 X43.252 Y40.99 E.54556
G1 X43.327 Y41.14 E.00526
G1 X43.441 Y41.178 E.00377
G1 X55.03 Y41.178 E.36336
G1 X55.149 Y41.136 E.00396
G1 X55.218 Y40.99 E.00506
G1 X55.227 Y23.606 E.54506
G1 X55.27 Y23.541 E.00244
G1 X78.178 Y23.541 E.71826
G1 X78.243 Y23.597 E.00269
G1 X78.243 Y103.999 E2.52094
G1 X78.2 Y104.064 E.00244
G1 X40.282 Y104.061 E1.18889
G1 X40.227 Y104.006 E.00244
G1 X40.224 Y23.61 E2.52076
G1 X40.238 Y23.592 E.00071
M204 S1000
G1 X40.621 Y23.745 F10800
;WIPE_START
G1 F8640
G1 X43.18 Y23.545 E-.6794
G1 X43.241 Y23.59 E-.0175
G1 X43.241 Y24.037 E-.1031
;WIPE_END
G1 Z.6 F720
G1 X53.797 Y61.674 F10800
G1 Z.2 F720
G1 E.8 F2100
M204 S800
;TYPE:Perimeter
G1 F1200
G1 X54.064 Y61.471 E.01052
G1 X54.547 Y61.269 E.01642
G1 X55.118 Y61.174 E.01815
G1 X55.768 Y61.229 E.02045
G1 X56.363 Y61.451 E.01991
G1 X56.869 Y61.815 E.01954
G1 X57.263 Y62.297 E.01952
G1 X57.519 Y62.864 E.01951
G1 X57.619 Y63.479 E.01954
G1 X57.557 Y64.099 E.01954
G1 X57.337 Y64.681 E.01951
G1 X56.973 Y65.186 E.01952
G1 X56.491 Y65.581 E.01954
G1 X55.923 Y65.837 E.01953
G1 X55.309 Y65.937 E.01951
G1 X54.689 Y65.875 E.01954
G1 X54.107 Y65.654 E.01952
G1 X53.601 Y65.291 E.01953
G1 X53.207 Y64.809 E.01952
G1 X52.951 Y64.241 E.01953
G1 X52.851 Y63.627 E.01951
G1 X52.913 Y63.007 E.01954
G1 X53.133 Y62.425 E.01951
G1 X53.497 Y61.919 E.01954
G1 X53.751 Y61.712 E.01027
M204 S1000
G1 X54.237 Y61.806 F10800
M204 S800
;TYPE:External perimeter
G1 F1200
G1 X54.708 Y61.611 E.01598
G1 X55.207 Y61.547 E.01577
G1 X55.727 Y61.604 E.0164
G1 X56.219 Y61.799 E.01659
G1 X56.639 Y62.114 E.01646
G1 X56.964 Y62.526 E.01645
G1 X57.17 Y63.009 E.01646
G1 X57.245 Y63.528 E.01644
G1 X57.183 Y64.049 E.01645
G1 X56.988 Y64.537 E.01648
G1 X56.674 Y64.957 E.01644
G1 X56.262 Y65.281 E.01643
G1 X55.779 Y65.488 E.01648
G1 X55.26 Y65.563 E.01644
G1 X54.739 Y65.501 E.01645
G1 X54.251 Y65.306 E.01648
G1 X53.831 Y64.992 E.01644
G1 X53.506 Y64.579 E.01648
G1 X53.3 Y64.097 E.01644
G1 X53.225 Y63.577 E.01647
G1 X53.287 Y63.056 E.01645
G1 X53.482 Y62.569 E.01645
G1 X53.796 Y62.149 E.01644
G1 X54.188 Y61.84 E.01565
M204 S1000
G1 X54.237 Y61.406 F10800
;WIPE_START
G1 F8640
G1 X54.708 Y61.611 E-.1312
G1 X55.207 Y61.547 E-.11616
G1 X55.727 Y61.604 E-.12079
G1 X56.219 Y61.799 E-.1222
G1 X56.639 Y62.114 E-.12122
G1 X56.964 Y62.526 E-.12117
G1 X57.078 Y62.794 E-.06726
;WIPE_END
G1 Z.6 F720
G1 X60.859 Y63.548 F10800
G1 Z.2 F720
G1 E.8 F2100
M204 S800
;TYPE:Perimeter
G1 F1200
G1 X60.913 Y63.007 E.01705
G1 X61.133 Y62.425 E.01951
G1 X61.497 Y61.919 E.01954
G1 X61.979 Y61.525 E.01952
G1 X62.547 Y61.269 E.01953
G1 X63.118 Y61.174 E.01815
G1 X63.768 Y61.229 E.02045
G1 X64.363 Y61.451 E.01991
G1 X64.869 Y61.815 E.01954
G1 X65.263 Y62.297 E.01952
G1 X65.519 Y62.864 E.01951
G1 X65.619 Y63.479 E.01954
G1 X65.557 Y64.099 E.01954
G1 X65.353 Y64.641 E.01816
G1 X64.981 Y65.176 E.02043
G1 X64.491 Y65.581 E.01993
G1 X63.923 Y65.837 E.01953
G1 X63.309 Y65.937 E.01951
G1 X62.689 Y65.875 E.01954
G1 X62.107 Y65.654 E.01952
G1 X61.601 Y65.291 E.01953
G1 X61.207 Y64.809 E.01952
G1 X60.951 Y64.241 E.01953
G1 X60.853 Y63.608 E.02008
M204 S1000
G1 X61.3 Y64.097 F10800
M204 S800
;TYPE:External perimeter
G1 F1200
G1 X61.225 Y63.577 E.01647
G1 X61.287 Y63.056 E.01645
G1 X61.482 Y62.569 E.01645
G1 X61.796 Y62.149 E.01644
G1 X62.209 Y61.824 E.01648
G1 X62.691 Y61.617 E.01645
G1 X63.191 Y61.547 E.01583
G1 X63.727 Y61.604 E.0169
G1 X64.219 Y61.799 E.01659
G1 X64.639 Y62.114 E.01646
G1 X64.964 Y62.526 E.01645
G1 X65.17 Y63.009 E.01646
G1 X65.245 Y63.528 E.01644
G1 X65.183 Y64.049 E.01645
G1 X64.995 Y64.517 E.01581
G1 X64.677 Y64.953 E.01692
G1 X64.262 Y65.281 E.01659
G1 X63.779 Y65.488 E.01648
G1 X63.26 Y65.563 E.01644
G1 X62.739 Y65.501 E.01645
G1 X62.251 Y65.306 E.01648
G1 X61.831 Y64.992 E.01644
G1 X61.506 Y64.579 E.01648
G1 X61.323 Y64.152 E.01457
M204 S1000
G1 X60.912 Y63.998 F10800
;WIPE_START
G1 F8640
G1 X61.225 Y63.577 E-.13468
G1 X61.287 Y63.056 E-.12115
G1 X61.482 Y62.569 E-.12113
G1 X61.796 Y62.149 E-.12109
G1 X62.209 Y61.824 E-.12135
G1 X62.691 Y61.617 E-.12112
G1 X62.946 Y61.581 E-.05948
;WIPE_END
G1 Z.6 F720
G1 X76.988 Y24.031 F10800
G1 Z.2 F720
G1 E.8 F2100
M204 S800
;TYPE:Solid infill
;WIDTH:0.421287
G1 F1200
G1 X77.583 Y24.627 E.0265
G1 X77.583 Y25.162 E.01683
G1 X76.622 Y24.201 E.04276
G1 X76.087 Y24.201 E.01683
G1 X77.583 Y25.697 E.06656
G1 X77.583 Y26.232 E.01683
G1 X75.552 Y24.201 E.09037
G1 X75.017 Y24.201 E.01683
G1 X77.583 Y26.767 E.11417
G1 X77.583 Y27.302 E.01683
M73 Q0 S135
G1 X74.482 Y24.201 E.13797
G1 X73.947 Y24.201 E.01683
G1 X77.583 Y27.837 E.16178
G1 X77.583 Y28.372 E.01683
G1 X73.412 Y24.201 E.18558
G1 X72.877 Y24.201 E.01683
G1 X77.583 Y28.908 E.20941
G1 X77.583 Y29.443 E.01683
G1 X72.342 Y24.201 E.23321
G1 X71.807 Y24.201 E.01683
G1 X77.583 Y29.978 E.25701
G1 X77.583 Y30.513 E.01683
G1 X71.272 Y24.201 E.28082
G1 X70.736 Y24.201 E.01686
G1 X77.583 Y31.048 E.30464
G1 X77.583 Y31.583 E.01683
G1 X70.201 Y24.201 E.32845
G1 X69.666 Y24.201 E.01683
G1 X77.583 Y32.118 E.35225
G1 X77.583 Y32.653 E.01683
G1 X69.131 Y24.201 E.37606
G1 X68.596 Y24.201 E.01683
G1 X77.583 Y33.188 E.39986
G1 X77.583 Y33.723 E.01683
G1 X68.061 Y24.201 E.42366
G1 X67.526 Y24.201 E.01683
M73 P1 R132
G1 X77.583 Y34.258 E.44747
G1 X77.583 Y34.794 E.01686
G1 X66.991 Y24.201 E.47129
G1 X66.456 Y24.201 E.01683
M73 Q1 S135
G1 X77.583 Y35.329 E.4951
G1 X77.583 Y35.864 E.01683
G1 X65.921 Y24.201 E.5189
G1 X65.386 Y24.201 E.01683
G1 X77.583 Y36.399 E.5427
G1 X77.583 Y36.934 E.01683
G1 X64.85 Y24.201 E.56653
G1 X64.315 Y24.201 E.01683
G1 X77.583 Y37.469 E.59033
G1 X77.583 Y38.004 E.01683
G1 X63.78 Y24.201 E.61414
G1 X63.245 Y24.201 E.01683
G1 X77.583 Y38.539 E.63794
G1 X77.583 Y39.074 E.01683
G1 X62.71 Y24.201 E.66175
G1 X62.175 Y24.201 E.01683
G1 X77.583 Y39.609 E.68555
G1 X77.583 Y40.144 E.01683
G1 X61.64 Y24.201 E.70935
G1 X61.105 Y24.201 E.01683
G1 X77.583 Y40.68 E.73318
G1 X77.583 Y41.215 E.01683
G1 X60.57 Y24.201 E.75698
G1 X60.035 Y24.201 E.01683
G1 X77.583 Y41.75 E.78079
G1 X77.583 Y42.285 E.01683
G1 X59.499 Y24.201 E.80461
G1 X58.964 Y24.201 E.01683
G1 X77.583 Y42.82 E.82842
G1 X77.583 Y43.355 E.01683
G1 X58.429 Y24.201 E.85222
G1 X57.894 Y24.201 E.01683
G1 X77.583 Y43.89 E.87602
G1 X77.583 Y44.425 E.01683
G1 X57.359 Y24.201 E.89983
G1 X56.824 Y24.201 E.01683
G1 X77.583 Y44.96 E.92363
G1 X77.583 Y45.495 E.01683
M73 P1 R131
G1 X56.289 Y24.201 E.94744
G1 X55.887 Y24.201 E.01265
G1 X55.887 Y24.334 E.00418
G1 X77.583 Y46.03 E.96532
G1 X77.583 Y46.566 E.01686
G1 X55.886 Y24.869 E.96537
G1 X55.886 Y25.403 E.0168
G1 X77.583 Y47.101 E.96539
G1 X77.583 Y47.636 E.01683
G1 X55.886 Y25.938 E.96539
G1 X55.885 Y26.473 E.01683
G1 X77.583 Y48.171 E.96541
G1 X77.583 Y48.706 E.01683
G1 X55.885 Y27.008 E.96541
G1 X55.885 Y27.542 E.0168
G1 X77.583 Y49.241 E.96543
G1 X77.583 Y49.776 E.01683
G1 X55.884 Y28.077 E.96545
G1 X55.884 Y28.612 E.01683
G1 X77.583 Y50.311 E.96545
G1 X77.583 Y50.846 E.01683
G1 X55.884 Y29.147 E.96545
G1 X55.883 Y29.681 E.0168
G1 X77.583 Y51.381 E.9655
G1 X77.583 Y51.916 E.01683
G1 X55.883 Y30.216 E.9655
G1 X55.883 Y30.751 E.01683
G1 X77.583 Y52.452 E.96552
G1 X77.583 Y52.987 E.01683
G1 X55.882 Y31.286 E.96554
G1 X55.882 Y31.821 E.01683
G1 X77.583 Y53.522 E.96554
G1 X77.583 Y54.057 E.01683
G1 X55.882 Y32.355 E.96557
G1 X55.881 Y32.89 E.01683
G1 X77.583 Y54.592 E.96559
G1 X77.583 Y55.127 E.01683
G1 X55.881 Y33.425 E.96559
G1 X55.881 Y33.96 E.01683
M73 Q1 S134
G1 X77.583 Y55.662 E.96559
G1 X77.583 Y56.197 E.01683
G1 X55.88 Y34.494 E.96563
G1 X55.88 Y35.029 E.01683
G1 X77.583 Y56.732 E.96563
G1 X77.583 Y57.267 E.01683
G1 X55.88 Y35.564 E.96563
G1 X55.879 Y36.099 E.01683
G1 X77.583 Y57.802 E.96566
G1 X77.583 Y58.338 E.01686
G1 X55.879 Y36.633 E.9657
G1 X55.879 Y37.168 E.01683
G1 X77.583 Y58.873 E.9657
G1 X77.583 Y59.408 E.01683
G1 X55.878 Y37.703 E.96572
G1 X55.878 Y38.238 E.01683
G1 X77.583 Y59.943 E.96572
G1 X77.583 Y60.478 E.01683
G1 X55.878 Y38.772 E.96574
G1 X55.877 Y39.307 E.01683
G1 X77.583 Y61.013 E.96577
G1 X77.583 Y61.548 E.01683
G1 X55.877 Y39.842 E.96577
G1 X55.877 Y40.377 E.01683
G1 X77.583 Y62.083 E.96577
G1 X77.583 Y62.618 E.01683
G1 X55.876 Y40.912 E.96579
G1 X55.876 Y41.049 E.00431
G1 X55.848 Y41.214 E.00527
G1 X55.792 Y41.362 E.00498
G1 X77.583 Y63.153 E.96955
G1 X77.583 Y63.688 E.01683
G1 X55.547 Y41.652 E.98045
G1 X55.354 Y41.774 E.00718
G1 X55.183 Y41.824 E.00561
G1 X77.583 Y64.224 E.99664
G1 X77.583 Y64.759 E.01683
M73 P2 R131
G1 X54.663 Y41.838 E1.0198
G1 X54.127 Y41.838 E.01686
G1 X77.583 Y65.294 E1.04363
G1 X77.583 Y65.829 E.01683
M73 P2 R130
G1 X53.592 Y41.838 E1.06743
M73 Q2 S134
G1 X53.057 Y41.838 E.01683
G1 X77.583 Y66.364 E1.09124
G1 X77.583 Y66.899 E.01683
G1 X52.522 Y41.838 E1.11504
G1 X51.987 Y41.838 E.01683
G1 X77.583 Y67.434 E1.13884
G1 X77.583 Y67.969 E.01683
G1 X51.452 Y41.838 E1.16265
G1 X50.917 Y41.838 E.01683
G1 X77.583 Y68.504 E1.18645
G1 X77.583 Y69.039 E.01683
G1 X50.382 Y41.838 E1.21026
G1 X49.847 Y41.838 E.01683
G1 X77.583 Y69.574 E1.23406
G1 X77.583 Y70.11 E.01686
G1 X49.312 Y41.838 E1.25789
G1 X48.777 Y41.838 E.01683
G1 X77.583 Y70.645 E1.28169
G1 X77.583 Y71.18 E.01683
G1 X48.241 Y41.838 E1.30552
G1 X47.706 Y41.838 E.01683
G1 X77.583 Y71.715 E1.32932
G1 X77.583 Y72.25 E.01683
G1 X47.171 Y41.838 E1.35312
G1 X46.636 Y41.838 E.01683
G1 X77.583 Y72.785 E1.37693
G1 X77.583 Y73.32 E.01683
G1 X46.101 Y41.838 E1.40073
G1 X45.566 Y41.838 E.01683
M73 Q2 S133
G1 X77.583 Y73.855 E1.42453
G1 X77.583 Y74.39 E.01683
G1 X65.657 Y62.465 E.5306
G1 X65.596 Y62.311 E.00521
G1 X65.491 Y62.129 E.00661
G1 X65.099 Y61.638 E.01977
G1 X64.597 Y61.254 E.01988
G1 X64.331 Y61.138 E.00913
G1 X45.031 Y41.838 E.85872
G1 X44.496 Y41.838 E.01683
G1 X63.587 Y60.929 E.84942
G1 X63.139 Y60.888 E.01415
G1 X63.026 Y60.904 E.00359
G1 X43.791 Y41.668 E.85585
M204 S1000
;WIPE_START
G1 F8640
G1 X46.241 Y44.118 E-.8
;WIPE_END
G1 Z.6 F720
G1 X42.752 Y24.576 F10800
G1 Z.2 F720
G1 E.8 F2100
M204 S800
G1 F1200
G1 X42.38 Y24.205 E.01653
G1 X41.845 Y24.205 E.01683
G1 X42.582 Y24.942 E.03279
G1 X42.582 Y25.477 E.01683
G1 X41.31 Y24.205 E.0566
G1 X40.883 Y24.205 E.01343
G1 X40.883 Y24.313 E.0034
G1 X42.583 Y26.013 E.07564
G1 X42.583 Y26.548 E.01683
G1 X40.884 Y24.848 E.07562
G1 X40.884 Y25.384 E.01686
G1 X42.583 Y27.084 E.07562
G1 X42.584 Y27.619 E.01683
G1 X40.884 Y25.919 E.07564
G1 X40.884 Y26.454 E.01683
G1 X42.584 Y28.154 E.07564
G1 X42.584 Y28.69 E.01686
G1 X40.884 Y26.989 E.07566
G1 X40.884 Y27.524 E.01683
G1 X42.585 Y29.225 E.07568
G1 X42.585 Y29.761 E.01686
G1 X40.884 Y28.059 E.0757
G1 X40.884 Y28.594 E.01683
G1 X42.585 Y30.296 E.0757
G1 X42.586 Y30.831 E.01683
G1 X40.884 Y29.129 E.07573
G1 X40.884 Y29.664 E.01683
G1 X42.586 Y31.367 E.07575
G1 X42.586 Y31.902 E.01683
G1 X40.884 Y30.2 E.07573
G1 X40.884 Y30.735 E.01683
G1 X42.587 Y32.438 E.07577
G1 X42.587 Y32.973 E.01683
G1 X40.884 Y31.27 E.07577
G1 X40.884 Y31.805 E.01683
G1 X42.587 Y33.509 E.07579
G1 X42.588 Y34.044 E.01683
G1 X40.884 Y32.34 E.07582
G1 X40.884 Y32.875 E.01683
G1 X42.588 Y34.579 E.07582
G1 X42.588 Y35.115 E.01686
G1 X40.884 Y33.41 E.07584
G1 X40.884 Y33.945 E.01683
G1 X42.589 Y35.65 E.07586
G1 X42.589 Y36.186 E.01686
G1 X40.884 Y34.481 E.07586
G1 X40.884 Y35.016 E.01683
G1 X42.589 Y36.721 E.07586
G1 X42.59 Y37.257 E.01686
G1 X40.884 Y35.551 E.07591
G1 X40.884 Y36.086 E.01683
G1 X42.59 Y37.792 E.07591
G1 X42.59 Y38.327 E.01683
G1 X40.884 Y36.621 E.07591
G1 X40.884 Y37.156 E.01683
G1 X42.591 Y38.863 E.07595
G1 X42.591 Y39.398 E.01683
G1 X40.884 Y37.691 E.07595
G1 X40.884 Y38.226 E.01683
G1 X42.591 Y39.934 E.07597
G1 X42.592 Y40.469 E.01683
